2 Export/Icons/Brands/Odnoklassniki.svg

<svg xmlns="http://www.w3.org/2000/svg" xmlns:xlink="http://www.w3.org/1999/xlink" width="24" height="24" viewBox="0 0 24 24">
  <defs>
    <path id="odnoklassniki-a" d="M14.0926794,16.080545 C15.0489693,15.863036 15.9625073,15.4850202 16.7927919,14.9629985 C17.418318,14.544481 17.586325,13.6984458 17.1678075,13.0729197 C16.7657908,12.4713946 15.9647574,12.2898871 15.3414814,12.6581524 C13.4289017,13.8544523 10.9988005,13.8544523 9.0862208,12.6581524 C8.45094433,12.2576357 7.61240939,12.4481437 7.21114267,13.0819201 C7.21114267,13.0834201 7.21114267,13.0849202 7.20964261,13.0856702 C6.80912592,13.7209467 6.99963386,14.5602317 7.63491033,14.9607484 L7.63641039,14.9622484 C8.46519493,15.4835201 9.37798296,15.8622859 10.3335228,16.0782949 L7.73466449,18.6771532 C7.20439239,19.1984249 7.19464199,20.0497104 7.71366361,20.5799825 L7.73616455,20.6024834 C7.9941753,20.8679945 8.34368986,21 8.69170436,21 C9.0404689,21 9.38923343,20.8679945 9.64799421,20.6024834 L12.2138511,18.0493771 L14.7669575,20.6039835 C15.30698,21.1252552 16.1695159,21.1110046 16.6915377,20.5702321 C17.2000589,20.0429601 17.2000589,19.2066753 16.6915377,18.6801533 L14.0926794,16.080545 L14.0926794,16.080545 Z M12.2138511,12.2913871 C14.778958,12.288387 16.8565446,10.2108005 16.8602947,7.6464436 C16.8602947,5.08508688 14.7752078,3 12.2138511,3 C9.6524944,3 7.56740752,5.08508688 7.56740752,7.64794366 C7.57115767,10.2130505 9.64949427,12.2906371 12.2138511,12.2921372 L12.2138511,12.2913871 Z M12.2138511,5.72336347 C13.2758954,5.72486354 14.1361812,6.58589941 14.1369312,7.64719363 C14.1369312,8.70923788 13.2758954,9.56952373 12.2138511,9.57102379 C11.1525569,9.56952373 10.2922711,8.70998792 10.290021,7.64794366 C10.291521,6.58514938 11.1525569,5.72486354 12.2138511,5.72261344 L12.2138511,5.72336347 Z"/>
  </defs>
  <g fill="none" fill-rule="evenodd">
    <polygon points="0 0 24 0 24 24 0 24"/>
    <mask id="odnoklassniki-b" fill="#fff">
      <use xlink:href="#odnoklassniki-a"/>
    </mask>
    <use fill="#000" xlink:href="#odnoklassniki-a"/>
    <g fill="#000" mask="url(#odnoklassniki-b)">
      <rect width="24" height="24"/>
    </g>
  </g>
</svg>

<svg xmlns="http://www.w3.org/2000/svg" xmlns:xlink="http://www.w3.org/1999/xlink" width="24" height="24" viewBox="0 0 24 24">
  <defs>
    <path id="odnoklassniki-a" d="M14.093 16.08a8.7 8.7 0 0 0 2.7-1.117 1.362 1.362 0 0 0-1.452-2.305 5.9 5.9 0 0 1-6.255 0 1.36 1.36 0 0 0-1.875.424l-.001.004a1.36 1.36 0 0 0 .425 1.875l.001.001c.83.522 1.742.9 2.698 1.116l-2.6 2.6a1.347 1.347 0 0 0-.02 1.902l.022.022c.258.266.608.398.956.398s.697-.132.956-.398l2.566-2.553 2.553 2.555a1.362 1.362 0 0 0 1.925-1.924l-2.6-2.6zm-1.88-3.789a4.651 4.651 0 0 0 4.647-4.645A4.653 4.653 0 0 0 12.214 3a4.653 4.653 0 0 0-4.647 4.648 4.65 4.65 0 0 0 4.647 4.644zm0-6.568a1.925 1.925 0 0 1 0 3.848 1.927 1.927 0 0 1-1.923-1.923 1.928 1.928 0 0 1 1.924-1.925z"/>
  </defs>
  <g fill="none" fill-rule="evenodd">
    <polygon points="0 0 24 0 24 24 0 24"/>
    <mask id="odnoklassniki-b" fill="#fff">
      <use xlink:href="#odnoklassniki-a"/>
    </mask>
    <use fill="#000" xlink:href="#odnoklassniki-a"/>
    <g fill="#000" mask="url(#odnoklassniki-b)">
      <rect width="24" height="24"/>
    </g>
  </g>
</svg>
